svgs/vote_info.svg

<svg viewBox="0 0 192 192" xml:space="preserve" style="fill-rule:evenodd;clip-rule:evenodd;stroke-linejoin:round;stroke-miterlimit:2" xmlns="http://www.w3.org/2000/svg"><path d="M249.01 1012H234c-3.311 0-6 2.69-6 6s2.689 6 6 6h148c3.311 0 6-2.69 6-6s-2.689-6-6-6h-14.809l10.391-31.16c2.538-7.61-1.58-15.849-9.19-18.386l-78.777-26.271c-7.61-2.537-15.848 1.58-18.386 9.19L249.01 1012Zm105.531 0 11.657-34.956a2.536 2.536 0 0 0-1.602-3.207l-78.777-26.27a2.535 2.535 0 0 0-3.206 1.603L261.66 1012h92.881ZM253.144 864c-7.008 0-14.017 1.18-21.024 3.493a6 6 0 0 0-4.12 5.698c0 17.158.58 34.982 22.725 44.735a6.006 6.006 0 0 0 4.837 0c22.145-9.753 22.725-27.577 22.725-44.735a6 6 0 0 0-4.12-5.698C267.16 865.18 260.151 864 253.144 864Zm0 12c4.383 0 8.766.574 13.149 1.687-.042 10.69-.965 21.523-13.149 28.079-12.185-6.555-13.107-17.389-13.15-28.079 4.384-1.113 8.766-1.687 13.15-1.687Z" style="fill-rule:evenodd;clip-rule:evenodd;stroke-linejoin:round;stroke-miterlimit:2" transform="translate(-212 -848)"/></svg>

<?xml version="1.0" encoding="UTF-8" standalone="no"?>
<svg
   width="100%"
   height="100%"
   viewBox="0 0 192 192"
   version="1.1"
   xml:space="preserve"
   style="fill-rule:evenodd;clip-rule:evenodd;stroke-linejoin:round;stroke-miterlimit:2;"
   id="svg10"
   sodipodi:docname="vote_info.svg"
   inkscape:version="1.2.1 (9c6d41e410, 2022-07-14)"
   xmlns:inkscape="http://www.inkscape.org/namespaces/inkscape"
   xmlns:sodipodi="http://sodipodi.sourceforge.net/DTD/sodipodi-0.dtd"
   xmlns="http://www.w3.org/2000/svg"
   xmlns:svg="http://www.w3.org/2000/svg"><defs
   id="defs14" /><sodipodi:namedview
   id="namedview12"
   pagecolor="#ffffff"
   bordercolor="#000000"
   borderopacity="0.25"
   inkscape:showpageshadow="2"
   inkscape:pageopacity="0.0"
   inkscape:pagecheckerboard="0"
   inkscape:deskcolor="#d1d1d1"
   showgrid="false"
   inkscape:zoom="2.5693411"
   inkscape:cx="98.663429"
   inkscape:cy="57.991522"
   inkscape:window-width="1274"
   inkscape:window-height="1303"
   inkscape:window-x="1282"
   inkscape:window-y="36"
   inkscape:window-maximized="0"
   inkscape:current-layer="svg10" />
    <path
   d="M249.01,1012L234,1012C230.689,1012 228,1014.69 228,1018C228,1021.31 230.689,1024 234,1024L253.216,1024C253.294,1024 253.371,1024 253.449,1024L358.747,1024C358.824,1024 358.902,1024 358.98,1024L382,1024C385.311,1024 388,1021.31 388,1018C388,1014.69 385.311,1012 382,1012L367.191,1012L377.582,980.84C380.12,973.23 376.002,964.991 368.392,962.454C368.392,962.454 289.615,936.183 289.615,936.183C282.005,933.646 273.767,937.763 271.229,945.373L249.01,1012ZM354.541,1012L366.198,977.044C366.641,975.716 365.923,974.28 364.596,973.837C364.596,973.837 285.819,947.567 285.819,947.567C284.492,947.124 283.055,947.843 282.613,949.17L261.66,1012L354.541,1012ZM253.144,864C246.136,864 239.127,865.18 232.12,867.493C229.661,868.304 228,870.601 228,873.191C228,890.349 228.58,908.173 250.725,917.926C252.266,918.604 254.021,918.604 255.562,917.926C277.707,908.173 278.287,890.349 278.287,873.191C278.287,870.601 276.626,868.304 274.167,867.493C267.16,865.18 260.151,864 253.144,864ZM253.144,876C257.527,876 261.91,876.574 266.293,877.687C266.251,888.377 265.328,899.21 253.144,905.766C240.959,899.211 240.037,888.377 239.994,877.687C244.378,876.574 248.76,876 253.144,876Z"
   id="path4"
   style="fill-rule:evenodd;clip-rule:evenodd;stroke-linejoin:round;stroke-miterlimit:2"
   transform="translate(-212,-848)"
   inkscape:label="vote_info_form" />
</svg>
